X:122
T:Nelsons Hornpipe. GS.122
M:2/2
L:1/8
Q:1/2=90
S:George Spencer m/s, Leeds,1831
R:.Hornpipe
O:England
A:Leeds
N:â€™George Spencer 1831â€² written on stave at end of music
H:1831
Z:vmp.Cherri Graebe
K:A major
cd | ecfd cBdB | AGBG A2 cd | ecag fedc | cBdB BAGF |!
ecfd cBdB | AGBGAafd |cBdB AGBG | A2A2A2:|!
|:cd | egaf fedc | fefg a2 ag A| fedc BAGF | E2E2E2AG |!
FABG Acec | dfaf ecfd | cBdB AGBG A2A2A2 ğŸ˜

